X:210
T:Jou senc en moy l'amor renouveler
C:Adam de la Halle
R:Chanson
O:XIIIe
M:3/4
L:1/8
Q:1/4=100
K:G 
V:1
%%continueall 1
%%maxshrink 0.6
%%MIDI program 46
d2 (3ddc (3BAB | cB (3BBAAG | ABA2G2 | F3- F2z | 
A2B2 (3ccB | (3AGA^A2 (3=AGF | GAc2 (3BAG | ABA2G2 | \
%%MIDI program 46
d2 (3ddc (3BAB | cB (3BBAAG | ABA2G2 | F3- F2z | 
A2B2 (3ccB | (3AGA^A2 (3=AGF | GAc2 (3BAG | ABA2G2 | 
E2=F2G2 | A2B2c2 | BAG AB2 | B2c2 (3ddc | 
(3BABc2B2 | (3BAGA2 (3BAG | ^F3- F2z | A2B2c2 | 
B2 (3cBAG2 | A4B2 | (3ddc (3BAB (3ccB | (3AGAA2 (3GAB | 
AGF2G2 |]





%%header "$P0	 $IR 	$P1"
%%footer $D - Éditions Galouvielle - 2009 - À usage librement privé dans le cadre familial

